X:317
T:The tent at the fair
T:Poldwilly bridge
R:Reel
O:Ireland
B:Kerr's First p.24
B:O'Neill's p1517
S:My arrangement from various sources
Z:Transcription, arrangement, chords:Mike Long
M:C|
L:1/8
K:D
A|:\
"D"d2AF DdAF|"D"~d2AF "A"EecA|"D"~d2AF DdAF|\
"A"ec (3(ABc) "G"d2dA:|\
"D"d2fd adfd|"D"adfd "A"cdef|
"D"d2fd adfa|"G"gfed "A"cdef|\
"D"d2 (3(fed) adfd|"D"adfd "G"bdgb|\
"D"afge "A"fdef|"G"gfed "A"cABc|]
